X:1
T:Title
%%score 1 { 2 | 3 }
L:1/8
Q:1/4=184
M:4/2
K:Ab
V:1 treble nm="Grand Piano, Soprano"
V:2 bass nm="Choir Pad, Selafo, M. Colquhoun, 1900"
V:3 bass 
V:1
 [CE]4 [Ec]4- [Ec]2 [Ec]2 [EB]2 [EA]2 | [EG]3 [EA] [EB]12 | [GB]4 [Bd]4- [Bd]2 [Ac]2 [Fc]2 [FB]2 | %3
w: By~M.~Colquhoun,~1900 * * * * *|||
 [FA]3 [FB] [=Ec]12 | [CE]4 [_Ge]4- [Ge]2 [Gd]2 [Gc]2 [GA]2 | [_GB]3 [Gc] [Fd]12 | %6
w: |||
 [Bd]4 [Ac]4- [Ac]2 [FB]2 [EA]2 [EG]2 | [Gc]3 [GB] A12 | [Ac]4 [Ac]4- [Ac]2 [FB]2 [FB]2 [FA]2 | %9
w: |||
 [FA]3 [FG] [EG]12 | [EG]4 [Fd]4- [Fd]2 [DF]2 [EG]2 [EA]2 | [EB]2 [Ec]2 [CE]8- [CE]3/2 z/ [DF]2 | %12
w: |||
 [EG]2 [FA]2 [Ed]8- [Ed]3/2 z/ [EB]2 | [Ec]2 [EB]2 [Ee]12 | [Fd]4 [Ed]4- [Ed]2 [Ec]2 [FB]2 F2 | %15
w: |||
 [EG]3 [EA] [EA]12- | [EA]4 z4 z8 |] %17
w: ||
V:2
 A,4 A,4- A,2 A,2 G,2 A,2 | B,3 A, G,12 | E4 F4- F2 E2 D2 D2 | D3[K:bass] F, G,12 | %4
 A,4 C4- C2 B,2 A,2[K:treble] C2 | D3 E D12 | F4 E4- E2 D2 C2 B,2 | E3 D C12 | E4 E4- E2 D2 D2 D2 | %9
 _C3 C B,12 | B,4 D4- D2 A,2 B,2 A,2 | G,2 A,2 A,8- A,3/2 z/ A,2 | A,2 A,2 G,8 G,2 G,2 | %13
 G,2 G,2 A,12 | A,4 G,2 A,2 B,2[K:treble] C2 D2 B,2 | B,3 D C12- | C4 z4 z8 |] %17
V:3
 A,,4 A,,4- A,,2 A,,2 B,,2 C,2 | D,3 C, E,12 | E,4 B,,4- B,,2 C,2 D,2 D,2 | D,3 D, C,12 | %4
 A,,4 A,4- A,2 A,2 z2 A,2 | A,3 A, D,12 | B,,4 C,4- C,2 D,2 E,2 E,2 | E,3 E, A,12 | %8
 A,,4 C,4- C,2 D,2 D,2 D,2 | =D,3 D, E,12 | E,4 D,4- D,2 D,2 D,2 C,2 | %11
 D,2 C,2 A,,8- A,,3/2 z/ D,2 | D,2 D,2 B,,8 B,,2 E,2 | D,2 D,2 C,12 | D,4 E,2 F,2 G,2 A,2 D,2 D,2 | %15
 E,3 E, A,,12- | A,,4 z4 z8 |] %17

